X:1
T:Violin Caprice No. 13 in B-Flat Major
T:Violin Caprice No. 13 in B-Flat Major
T:Op. 1, No. 13
T:Niccolò Paganini
C:Niccolò Paganini
L:1/8
Q:1/4=120
M:6/8
K:Bb
V:1 treble nm="Violin" snm="Vln."
V:1
"^Allegro""_dolce" ([df][eg]) | ([df][bd'])(.[a^c'] .[a=c'].[^g=b].[=g_b] | %2
 .[^fa].[=f_a].[=eg] .[_e_g].[df].[ce]) | [Bd] z [Fc] [DB] z [Fc] | (!>![Bd]3 [DB])([df][eg]) | %5
 ([df][bd'])(.[a^c'] .[a=c'].[^g=b].[=g_b] | .[^fa].[=f_a].[=eg] .[_e_g].[df].[ce]) | %7
 [Bd] z [Fc] [DB] z [CFA] | [B,DB]3 z :: (.[FA].[GB] | .[FA])(!>![bd'][ac']) (.[FA].[GB].[FA]) | %11
 (!>![gb][fa])(.[FA] .[GB].[FA])(!>![bd'] | [ac'])(.[FA].[GB] .[FA])(!>![gb][fa]) | %13
 (.[FA].[GB].[FA]) !>![af'](.[df].[eg]) | ([df][bd'])(.[a^c'] .[a=c'].[^g=b].[=g_b] | %15
 .[^fa].[=f_a].[=eg] .[_e_g].[df].[ce]) | [Bd] z [Fc] [DB] z [CFA] | [B,DB]3 z!fine! :: %18
!f![Q:1/4=130]"^Minore" DD | (!>!G/^F/G/).G,/.d/.D/ (!>!G/F/G/).G,/.d/.D/ | %20
 (!>!G/^F/G/).G,/.g/.G/ .^f/.F/.=f/.=F/.=e/.=E/ | ._e/.E/.d/.D/.^c/.^C/ .=c/.=C/.B/.B,/.A/.A,/ | %22
 ([G,G]3 [D^F]D)D | (G/^F/G/).G,/.d/.D/ (G/F/G/).G,/.d/.D/ | %24
 (G/^F/G/).G,/.g/.G/ .^f/.F/.=f/.=F/.=e/.=E/ | ._e/.E/.d/.D/.^c/.^C/ .=c/.=C/.B/.B,/.A/.A,/ | %26
 [G,G]3 z ::"_dolce" d'd' | (g'/^f'/g'/)g/[=bd']/g/ (c'/b/c'/)c/[eg]/c/ | %29
 (f'/=e'/f'/)f/[ac']/!>!f/ (b/a/b/)B/[df]/B/ | (e'/d'/e'/)e/[gb]/!>!e/ (a/^g/a/)A/[^fd']/d/ | %31
 [gb]/G/[gb]/E/[gb]/^C/ D[^fd']D |!f! (!>!G/^F/G/).G,/.d/.D/ (!>!G/F/G/).G,/.d/.D/ | %33
 (!>!G/^F/G/).G,/.g/.G/ =f/=F/e/E/!>!a/A/ | g/G/^f/^F/!>!b/B/ a/A/g/G/!>!c'/c/ | %35
 b/B/a/A/!>!e'/e/ ^c'/^c/d'/d/!>!e'/e/ | ^c'/^c/d'/d/!>!e'/e/ c'/c/d'/d/=c'/=c/ | %37
 b/B/a/A/g/G/ (_A/G/A/)_A,/e/E/ | (_A/G/A/)_A,/e/E/ (A/G/A/)A,/c/A,/ | %39
 e/_A,/_a/A,/c'/A,/ (^F/^E/F/)=a/G/b/ | A/c'/B/d'/c/e'/ (d/^c/d/)g'/D/^f'/ | %41
 (g'/^f'/g'/)g/d'/d/ (g/^f/g/)G/d/D/ | (G/^F/G/)G,/d/D/ (G/F/G/)G,/d/D/ | G G,2 z!D.C.! :| %44

